assets/img/social/tg.svg

<svg width="30" height="30" viewBox="0 0 30 30" fill="none" xmlns="http://www.w3.org/2000/svg">
<path d="M25.8312 4.64578L3.66875 13.192C2.15625 13.7995 2.165 14.6433 3.39125 15.0195L9.08125 16.7945L22.2462 8.48828C22.8687 8.10953 23.4375 8.31328 22.97 8.72828L12.3037 18.3545H12.3012L12.3037 18.3558L11.9112 24.2208C12.4862 24.2208 12.74 23.957 13.0625 23.6458L15.8262 20.9583L21.575 25.2045C22.635 25.7883 23.3962 25.4883 23.66 24.2233L27.4337 6.43828C27.82 4.88953 26.8425 4.18828 25.8312 4.64578Z" fill="#8ABC36"/>
</svg>

<svg width="30" height="30" fill="none" xmlns="http://www.w3.org/2000/svg"><path d="M25.831 4.646L3.67 13.192c-1.513.607-1.504 1.451-.278 1.828l5.69 1.774 13.165-8.306c.623-.378 1.192-.175.724.24l-10.666 9.627H12.3h.003l-.393 5.866c.575 0 .829-.264 1.152-.575l2.763-2.688 5.749 4.247c1.06.583 1.821.283 2.085-.982l3.774-17.785c.386-1.548-.591-2.25-1.603-1.792z" fill="#8ABC36"/></svg>
